!!!OTL: MEIN SCHATZ IST AUF DIE WANDERSCHAFT
!!!ARE: Europa, Mitteleuropa, Deutschland
!!!SCT: Z0198
!!!YEM: Copyright 1995, estate of Helmut Schaffrath.
**kern
*ICvox
*Ivox
*M4/4
*k[b-]
*d:
{8d
8e
=1
4fn
4d
4d
4e
=2
8fn
8fn
4d
4d}
{4e
=3
4fn
8fn
8fn
8g
8g
8g
8g
=4
4.a
8b-
4a}
{8fn
8g
=5
4a
8b-
8b-
4ccn
4a
=6
8b-
8a
8g
8fn
4e}
{8fn
8g
=7
4a
8fn
8g
4a
12g
12fn
12e
=8
4d
4c#
4d}
==
!!!AGN: Romanze, Tod
!!!ONB: ESAC (Essen Associative Code) Database: ZUCCAL
!!!AMT: simple quadruple
!!!AIN: vox
!!!EED: Helmut Schaffrath
!!!EEV: 1.0
*-
